; generated by SuperSlicer 2.5.59 on 2022-09-15 at 18:15:31 UTC

; 

; external perimeters extrusion width = 3.27mm
; perimeters extrusion width = 3.69mm
; infill extrusion width = 3.54mm
; solid infill extrusion width = 3.69mm
; top infill extrusion width = 3.54mm
; first layer extrusion width = 4.74mm

; object:{"name":"torus v1","id":"torus v1.stl id:0 copy 0","object_center":[0.000000,0.000000,0.000000],"boundingbox_center":[0.000000,0.000000,12.493019],"boundingbox_size":[124.944122,124.930191,24.986038]}
; plater:{"center":[0.000000,0.000000,0.000000],"boundingbox_center":[0.000000,0.000000,12.493019],"boundingbox_size":[124.944122,124.930191,24.986038]}

;TYPE:Custom
G28 ; home all axes
G1 Z5 F5000 ; lift nozzle
M107
G21 ; set units to millimeters
G90 ; use absolute coordinates
M82 ; use absolute distances for extrusion
G92 E0
; Filament gcode
;_TOOLCHANGE 0
M104 S191 ; set temperature
M109 S191 ; set temperature and wait for it to be reached
M107
;LAYER_CHANGE
;Z:2.25
;HEIGHT:2.25
G1 Z2.25 F7800
G1 E-2 F2400
G1 X-62.04 Y5.584 F7800
G1 E0 F2400
;TYPE:Skirt
;WIDTH:3.3
G1 F1800
G1 X-61.517 Y11.394 E5.23135
G1 X-58.494 Y22.2 E15.29369
G1 X-53.589 Y32.293 E25.35608
G1 X-49.35 Y38.464 E32.06932
G1 X-44.716 Y43.768 E38.38578
G1 X-36.182 Y51.054 E48.44815
G1 X-26.081 Y56.885 E58.90632
G1 X-15.505 Y60.633 E68.96869
G1 X-8.154 Y62.054 E75.68192
G1 X-1.13 Y62.58 E81.99838
G1 X10.063 Y61.781 E92.06074
G1 X21.35 Y58.847 E102.51893
G1 X28.224 Y55.881 E109.23219
G1 X34.324 Y52.359 E115.54861
G1 X43.122 Y45.393 E125.61097
G1 X50.535 Y36.969 E135.67335
G1 X56.516 Y26.957 E146.13153
G1 X59.188 Y20.44 E152.44798
G1 X61.205 Y13.23 E159.16121
G1 X62.584 Y2.094 E169.22359
G1 X61.886 Y-9.548 E179.68177
G1 X59.188 Y-20.44 E189.74414
G1 X56.324 Y-27.357 E196.4574
G1 X52.894 Y-33.509 E202.77384
G1 X45.759 Y-42.735 E213.23202
G1 X40.33 Y-47.889 E219.94528
G1 X34.694 Y-52.114 E226.26172
G1 X24.831 Y-57.467 E236.32408
G1 X14.172 Y-60.972 E246.38645
G1 X2.615 Y-62.538 E256.84463
G1 X-8.593 Y-61.994 E266.90701
G1 X-15.934 Y-60.522 E273.62025
G1 X-22.633 Y-58.345 E279.93669
G1 X-32.686 Y-53.361 E289.99907
G1 X-42.018 Y-46.366 E300.45726
G1 X-46.961 Y-41.348 E306.77368
G1 X-51.562 Y-35.442 E313.48694
G1 X-57.242 Y-25.255 E323.94514
G1 X-59.847 Y-18.237 E330.65837
G1 X-61.517 Y-11.394 E336.9748
G1 X-62.563 Y-0.222 E347.03718
G1 X-62.081 Y5.136 E351.86051
G92 E0
G1 E-2 F2400
; printing object torus v1.stl id:0 copy 0
G1 X-47.04 Y3.782 F7800
G1 E0 F2400
;TYPE:External perimeter
;WIDTH:4.74
G1 F1800
G1 X-46.873 Y5.64 E2.52816
G1 X-46.452 Y8.435 E6.35814
G1 X-45.864 Y11.199 E10.18811
G1 X-45.112 Y13.924 E14.01805
G1 X-44.199 Y16.599 E17.84803
G1 X-43.127 Y19.214 E21.67799
G1 X-41.901 Y21.76 E25.50799
G1 X-40.524 Y24.229 E29.33795
G1 X-39.003 Y26.611 E33.16789
G1 X-37.341 Y28.897 E36.99789
G1 X-35.546 Y31.08 E40.82784
G1 X-33.624 Y33.152 E44.65783
G1 X-31.581 Y35.105 E48.48776
G1 X-29.425 Y36.933 E52.31774
G1 X-27.164 Y38.628 E56.14773
G1 X-24.805 Y40.185 E59.97769
G1 X-22.357 Y41.598 E63.80763
G1 X-19.829 Y42.863 E67.63764
G1 X-18.045 Y43.625 E70.26736
G1 X-17.23 Y43.974 E71.46758
G1 X-14.57 Y44.927 E75.29756
G1 X-11.857 Y45.72 E79.12755
G1 X-9.101 Y46.348 E82.95749
G1 X-6.313 Y46.811 E86.78747
G1 X-3.502 Y47.107 E90.61742
G1 X-0.679 Y47.234 E94.4474
G1 X2.147 Y47.191 E98.27737
G1 X4.966 Y46.98 E102.10732
G1 X7.767 Y46.601 E105.93733
G1 X10.54 Y46.055 E109.76727
G1 X13.275 Y45.344 E113.59724
G1 X15.963 Y44.47 E117.42722
G1 X18.594 Y43.438 E121.25717
G1 X21.159 Y42.249 E125.08716
G1 X23.647 Y40.91 E128.91712
G1 X26.052 Y39.424 E132.74709
G1 X28.363 Y37.798 E136.57704
G1 X30.573 Y36.035 E140.40702
G1 X32.673 Y34.144 E144.23699
G1 X34.657 Y32.131 E148.06695
G1 X36.516 Y30.002 E151.89693
G1 X38.245 Y27.766 E155.7269
G1 X39.837 Y25.431 E159.55687
G1 X41.287 Y23.005 E163.38683
G1 X42.589 Y20.496 E167.21679
G1 X43.738 Y17.914 E171.04677
G1 X44.732 Y15.268 E174.87673
G1 X45.565 Y12.567 E178.70671
G1 X46.235 Y9.822 E182.53666
G1 X46.739 Y7.041 E186.36666
G1 X47.077 Y4.234 E190.19659
G1 X47.246 Y1.413 E194.02657
G1 X47.246 Y-1.413 E197.85655
G1 X47.077 Y-4.234 E201.68653
G1 X46.739 Y-7.041 E205.51646
G1 X46.235 Y-9.822 E209.34647
G1 X45.565 Y-12.567 E213.17642
G1 X44.732 Y-15.268 E217.00639
G1 X43.738 Y-17.914 E220.83637
G1 X42.589 Y-20.496 E224.66634
G1 X41.287 Y-23.005 E228.4963
G1 X39.837 Y-25.431 E232.32625
G1 X38.245 Y-27.766 E236.15623
G1 X36.516 Y-30.002 E239.9862
G1 X34.657 Y-32.131 E243.81618
G1 X32.673 Y-34.144 E247.64613
G1 X30.573 Y-36.035 E251.47611
G1 X28.363 Y-37.798 E255.30609
G1 X26.052 Y-39.424 E259.13604
G1 X23.647 Y-40.91 E262.96601
G1 X21.159 Y-42.249 E266.79597
G1 X18.594 Y-43.438 E270.62596
G1 X15.963 Y-44.47 E274.45591
G1 X13.275 Y-45.344 E278.28588
G1 X10.54 Y-46.055 E282.11586
G1 X7.767 Y-46.601 E285.94579
G1 X4.966 Y-46.98 E289.7758
G1 X2.147 Y-47.191 E293.60576
G1 X-0.679 Y-47.234 E297.43573
G1 X-3.502 Y-47.107 E301.2657
G1 X-6.313 Y-46.811 E305.09566
G1 X-9.101 Y-46.348 E308.92564
G1 X-11.857 Y-45.72 E312.75558
G1 X-14.57 Y-44.927 E316.58557
G1 X-17.23 Y-43.974 E320.41554
G1 X-18.045 Y-43.625 E321.61576
G1 X-19.829 Y-42.863 E324.24548
G1 X-22.357 Y-41.598 E328.0755
G1 X-24.805 Y-40.185 E331.90544
G1 X-27.164 Y-38.628 E335.7354
G1 X-29.425 Y-36.933 E339.56538
G1 X-31.581 Y-35.105 E343.39536
G1 X-33.624 Y-33.152 E347.22529
G1 X-35.546 Y-31.08 E351.05528
G1 X-37.341 Y-28.897 E354.88523
G1 X-39.003 Y-26.611 E358.71523
G1 X-40.524 Y-24.229 E362.54518
G1 X-41.901 Y-21.76 E366.37514
G1 X-43.127 Y-19.214 E370.20513
G1 X-44.199 Y-16.599 E374.0351
G1 X-45.112 Y-13.924 E377.86507
G1 X-45.864 Y-11.199 E381.69502
G1 X-46.452 Y-8.435 E385.52499
G1 X-46.873 Y-5.64 E389.35497
G1 X-47.127 Y-2.825 E393.18494
G1 X-47.211 Y0 E397.0149
G1 X-47.127 Y2.825 E400.84486
G1 X-47.081 Y3.334 E401.53689
;WIPE_START
G1 X-49.494 Y5.509 F7800
;WIPE_END
G92 E0
G1 E-2 F2400
G1 X-52.591 Y4.281 F7800
G1 E0 F2400
G1 F1800
G1 X-52.692 Y3.159 E1.52783
G1 X-52.786 Y0 E5.80981
G1 X-52.692 Y-3.159 E10.0918
G1 X-52.409 Y-6.306 E14.37379
G1 X-51.938 Y-9.43 E18.65582
G1 X-51.281 Y-12.521 E22.93777
G1 X-50.44 Y-15.567 E27.21979
G1 X-49.419 Y-18.558 E31.50179
G1 X-48.22 Y-21.482 E35.78378
G1 X-46.849 Y-24.329 E40.06578
G1 X-45.31 Y-27.088 E44.34778
G1 X-43.609 Y-29.751 E48.62976
G1 X-41.752 Y-32.308 E52.91176
G1 X-39.745 Y-34.749 E57.19377
G1 X-37.596 Y-37.065 E61.47579
G1 X-35.312 Y-39.249 E65.75773
G1 X-32.901 Y-41.292 E70.03975
G1 X-30.373 Y-43.187 E74.32175
G1 X-27.736 Y-44.928 E78.60372
G1 X-24.999 Y-46.508 E82.88572
G1 X-22.173 Y-47.922 E87.16774
G1 X-19.267 Y-49.163 E91.44973
G1 X-16.293 Y-50.229 E95.73173
G1 X-13.259 Y-51.116 E100.01374
G1 X-10.179 Y-51.819 E104.29569
G1 X-7.062 Y-52.336 E108.57771
G1 X-3.919 Y-52.667 E112.8597
G1 X-0.762 Y-52.808 E117.14171
G1 X2.189 Y-52.764 E121.14141
G1 X5.549 Y-52.525 E125.70521
G1 X8.68 Y-52.101 E129.98724
G1 X11.78 Y-51.49 E134.26921
G1 X14.839 Y-50.695 E138.55121
G1 X17.844 Y-49.719 E142.83321
G1 X20.785 Y-48.564 E147.11519
G1 X23.652 Y-47.236 E151.3972
G1 X26.435 Y-45.739 E155.6792
G1 X29.123 Y-44.077 E159.96119
G1 X31.707 Y-42.259 E164.24316
G1 X34.178 Y-40.288 E168.52518
G1 X36.526 Y-38.174 E172.80717
G1 X38.744 Y-35.923 E177.08916
G1 X40.823 Y-33.543 E181.37116
G1 X42.756 Y-31.043 E185.65318
G1 X44.536 Y-28.433 E189.93515
G1 X46.156 Y-25.72 E194.21715
G1 X47.612 Y-22.915 E198.49915
G1 X48.897 Y-20.029 E202.78114
G1 X50.008 Y-17.07 E207.06315
G1 X50.939 Y-14.051 E211.34514
G1 X51.688 Y-10.981 E215.62712
G1 X52.252 Y-7.872 E219.90913
G1 X52.63 Y-4.734 E224.19115
G1 X52.819 Y-1.58 E228.4731
G1 X52.819 Y1.58 E232.75512
G1 X52.63 Y4.734 E237.03711
G1 X52.252 Y7.872 E241.31909
G1 X51.688 Y10.981 E245.6011
G1 X50.939 Y14.051 E249.8831
G1 X50.008 Y17.07 E254.16508
G1 X48.897 Y20.029 E258.44708
G1 X47.612 Y22.915 E262.72908
G1 X46.156 Y25.72 E267.01108
G1 X44.536 Y28.433 E271.29308
G1 X42.756 Y31.043 E275.57505
G1 X40.823 Y33.543 E279.85707
G1 X38.744 Y35.923 E284.13907
G1 X36.526 Y38.174 E288.42106
G1 X34.178 Y40.288 E292.70305
G1 X31.707 Y42.259 E296.98507
G1 X29.123 Y44.077 E301.26705
G1 X26.435 Y45.739 E305.54903
G1 X23.652 Y47.236 E309.83103
G1 X20.785 Y48.564 E314.11304
G1 X17.844 Y49.719 E318.39502
G1 X14.839 Y50.695 E322.67702
G1 X11.78 Y51.49 E326.95902
G1 X8.68 Y52.101 E331.24099
G1 X5.549 Y52.525 E335.52302
G1 X2.397 Y52.761 E339.80499
G1 X-0.762 Y52.808 E344.08699
G1 X-3.919 Y52.667 E348.369
G1 X-4.684 Y52.586 E349.41147
G1 X-7.062 Y52.336 E352.65099
G1 X-10.179 Y51.819 E356.93301
G1 X-13.259 Y51.116 E361.21496
G1 X-16.293 Y50.229 E365.49698
G1 X-19.267 Y49.163 E369.77897
G1 X-22.173 Y47.922 E374.06096
G1 X-24.999 Y46.508 E378.34298
G1 X-27.736 Y44.928 E382.62498
G1 X-30.373 Y43.187 E386.90695
G1 X-32.901 Y41.292 E391.18895
G1 X-35.312 Y39.249 E395.47097
G1 X-37.596 Y37.065 E399.75293
G1 X-39.745 Y34.749 E404.03493
G1 X-41.752 Y32.308 E408.31693
G1 X-43.609 Y29.751 E412.59894
G1 X-45.31 Y27.088 E416.88093
G1 X-46.849 Y24.329 E421.16292
G1 X-48.22 Y21.482 E425.44492
G1 X-49.419 Y18.558 E429.72691
G1 X-50.44 Y15.567 E434.00892
G1 X-51.281 Y12.521 E438.29093
G1 X-51.938 Y9.43 E442.57288
G1 X-52.409 Y6.306 E446.8549
G1 X-52.55 Y4.73 E448.99928
;WIPE_START
G1 X-50.138 Y2.555 F7800
;WIPE_END
G1 X-49.922 Y2.548
;TYPE:Gap fill
;WIDTH:2.140004
G1 F1800
G1 X-49.954 Y1.496 E449.55458
G1 X-49.998 Y0.025 E450.33092
G1 X-49.998 Y-0.025 E450.35707
G1 X-49.91 Y-2.967 E451.90975
G1 X-49.907 Y-3.016 E451.9359
G1 X-49.643 Y-5.948 E453.48858
G1 X-49.637 Y-5.997 E453.51473
G1 X-49.198 Y-8.908 E455.06742
G1 X-49.19 Y-8.957 E455.09357
G1 X-48.884 Y-10.396 E455.86991
G1 X-48.578 Y-11.836 E456.64625
G1 X-48.566 Y-11.884 E456.6724
G1 X-48.174 Y-13.303 E457.44874
G1 X-47.783 Y-14.722 E458.22508
G1 X-47.768 Y-14.769 E458.25123
G1 X-47.292 Y-16.162 E459.02757
G1 X-46.817 Y-17.555 E459.80392
G1 X-46.799 Y-17.601 E459.83006
G1 X-46.241 Y-18.963 E460.60641
G1 X-45.683 Y-20.325 E461.38275
G1 X-45.663 Y-20.37 E461.4089
G1 X-45.024 Y-21.696 E462.18524
G1 X-44.386 Y-23.022 E462.96158
G1 X-44.363 Y-23.066 E462.98773
G1 X-42.929 Y-25.637 E464.54041
G1 X-42.904 Y-25.68 E464.56656
G1 X-42.112 Y-26.92 E465.3429
G1 X-41.319 Y-28.16 E466.11924
G1 X-41.291 Y-28.201 E466.14539
G1 X-40.426 Y-29.392 E466.92174
G1 X-39.561 Y-30.582 E467.69809
G1 X-39.531 Y-30.622 E467.72424
G1 X-37.661 Y-32.895 E469.27691
G1 X-37.629 Y-32.933 E469.30305
G1 X-36.628 Y-34.012 E470.0794
G1 X-35.627 Y-35.09 E470.85574
G1 X-35.592 Y-35.126 E470.88189
G1 X-34.528 Y-36.143 E471.65823
G1 X-33.464 Y-37.16 E472.43457
G1 X-33.428 Y-37.193 E472.46071
G1 X-32.305 Y-38.145 E473.23706
G1 X-31.182 Y-39.096 E474.0134
G1 X-31.143 Y-39.127 E474.03955
G1 X-28.788 Y-40.893 E475.59224
G1 X-28.748 Y-40.921 E475.61839
G1 X-27.519 Y-41.732 E476.39473
G1 X-26.291 Y-42.543 E477.17107
G1 X-26.249 Y-42.569 E477.19722
G1 X-24.974 Y-43.305 E477.97356
G1 X-23.7 Y-44.041 E478.7499
G1 X-23.656 Y-44.064 E478.77604
G1 X-22.34 Y-44.723 E479.55239
G1 X-21.023 Y-45.381 E480.32873
G1 X-20.978 Y-45.402 E480.35488
G1 X-19.625 Y-45.98 E481.13122
G1 X-18.272 Y-46.559 E481.90756
G1 X-18.226 Y-46.577 E481.93371
G1 X-16.84 Y-47.073 E482.71005
G1 X-15.455 Y-47.57 E483.4864
G1 X-15.407 Y-47.585 E483.51254
G1 X-12.582 Y-48.411 E485.06524
G1 X-12.534 Y-48.423 E485.09139
G1 X-9.664 Y-49.078 E486.64405
G1 X-9.616 Y-49.088 E486.6702
G1 X-8.164 Y-49.329 E487.44655
G1 X-6.712 Y-49.57 E488.2229
G1 X-6.663 Y-49.577 E488.24905
G1 X-3.735 Y-49.884 E489.80172
G1 X-3.686 Y-49.888 E489.82787
G1 X-2.216 Y-49.954 E490.60421
G1 X-0.745 Y-50.02 E491.38056
G1 X-0.696 Y-50.021 E491.40671
G1 X0.687 Y-50 E492.13601
G1 X2.069 Y-49.979 E492.86531
G1 X2.158 Y-49.975 E492.91237
G1 X2.247 Y-49.972 E492.95942
G1 X2.297 Y-49.969 E492.9854
G1 X3.765 Y-49.862 E493.76175
G1 X5.232 Y-49.754 E494.53809
G1 X5.282 Y-49.749 E494.56424
G1 X6.74 Y-49.552 E495.34059
G1 X8.199 Y-49.354 E496.11694
G1 X8.248 Y-49.346 E496.14309
G1 X11.136 Y-48.777 E497.69575
G1 X11.184 Y-48.766 E497.7219
G1 X12.608 Y-48.396 E498.49825
G1 X14.033 Y-48.026 E499.2746
G1 X14.08 Y-48.012 E499.30075
G1 X15.48 Y-47.557 E500.07708
G1 X16.88 Y-47.102 E500.85342
G1 X16.927 Y-47.085 E500.87957
G1 X18.297 Y-46.548 E501.65591
G1 X19.667 Y-46.01 E502.43225
G1 X19.712 Y-45.99 E502.4584
G1 X21.048 Y-45.372 E503.23475
G1 X22.383 Y-44.753 E504.0111
G1 X22.427 Y-44.731 E504.03724
G1 X25.019 Y-43.336 E505.58992
G1 X25.062 Y-43.311 E505.61607
G1 X26.314 Y-42.538 E506.39241
G1 X27.566 Y-41.764 E507.16875
G1 X27.608 Y-41.737 E507.19489
G1 X28.811 Y-40.889 E507.97124
G1 X30.015 Y-40.042 E508.74758
G1 X30.054 Y-40.013 E508.77372
G1 X32.356 Y-38.177 E510.32642
G1 X32.394 Y-38.145 E510.35257
G1 X33.487 Y-37.16 E511.12891
G1 X34.581 Y-36.176 E511.90525
G1 X34.617 Y-36.141 E511.9314
G1 X36.683 Y-34.044 E513.48408
G1 X36.716 Y-34.008 E513.51023
G1 X37.685 Y-32.9 E514.28657
G1 X38.653 Y-31.791 E515.06291
G1 X38.685 Y-31.753 E515.08906
G1 X40.485 Y-29.425 E516.64175
G1 X40.514 Y-29.384 E516.66789
G1 X41.343 Y-28.168 E517.44424
G1 X42.173 Y-26.952 E518.22059
G1 X42.199 Y-26.911 E518.24673
G1 X43.709 Y-24.384 E519.79941
G1 X43.733 Y-24.34 E519.82555
G1 X45.089 Y-21.728 E521.37824
G1 X45.11 Y-21.683 E521.40439
G1 X46.308 Y-18.994 E522.95707
G1 X46.327 Y-18.948 E522.98322
G1 X46.844 Y-17.57 E523.75956
G1 X47.361 Y-16.192 E524.5359
G1 X47.377 Y-16.145 E524.56205
G1 X47.811 Y-14.739 E525.3384
G1 X48.244 Y-13.333 E526.11474
G1 X48.258 Y-13.285 E526.14089
G1 X48.956 Y-10.425 E527.69357
G1 X48.966 Y-10.377 E527.71972
G1 X49.229 Y-8.929 E528.49606
G1 X49.491 Y-7.48 E529.27241
G1 X49.499 Y-7.431 E529.29855
G1 X49.675 Y-5.97 E530.07489
G1 X49.85 Y-4.509 E530.85123
G1 X49.855 Y-4.46 E530.87737
G1 X49.943 Y-2.99 E531.65372
G1 X50.031 Y-1.521 E532.43007
G1 X50.032 Y-1.472 E532.45622
G1 X50.032 Y1.472 E534.0089
G1 X50.032 Y1.497 E534.02198
G1 X50.031 Y1.521 E534.03505
G1 X49.943 Y2.99 E534.8114
G1 X49.855 Y4.46 E535.58775
G1 X49.85 Y4.509 E535.6139
G1 X49.675 Y5.97 E536.39023
G1 X49.499 Y7.431 E537.16657
G1 X49.491 Y7.48 E537.19271
G1 X49.229 Y8.929 E537.96906
G1 X48.966 Y10.377 E538.7454
G1 X48.956 Y10.425 E538.77155
G1 X48.258 Y13.285 E540.32423
G1 X48.244 Y13.333 E540.35038
G1 X47.377 Y16.145 E541.90307
G1 X47.361 Y16.192 E541.92922
G1 X46.327 Y18.948 E543.4819
G1 X46.308 Y18.994 E543.50804
G1 X45.709 Y20.339 E544.28439
G1 X45.11 Y21.683 E545.06074
G1 X45.089 Y21.728 E545.08688
G1 X43.733 Y24.34 E546.63957
G1 X43.709 Y24.384 E546.66572
G1 X42.199 Y26.911 E548.21839
G1 X42.173 Y26.952 E548.24454
G1 X40.514 Y29.384 E549.79723
G1 X40.485 Y29.425 E549.82338
G1 X38.685 Y31.753 E551.37606
G1 X38.653 Y31.791 E551.40221
G1 X37.685 Y32.9 E552.17855
G1 X36.716 Y34.008 E552.9549
G1 X36.683 Y34.044 E552.98104
G1 X35.65 Y35.093 E553.75738
G1 X34.617 Y36.141 E554.53372
G1 X34.581 Y36.176 E554.55987
G1 X32.394 Y38.145 E556.11256
G1 X32.356 Y38.177 E556.1387
G1 X30.054 Y40.013 E557.6914
G1 X30.015 Y40.042 E557.71754
G1 X28.811 Y40.889 E558.49389
G1 X27.608 Y41.737 E559.27023
G1 X27.566 Y41.764 E559.29637
G1 X26.314 Y42.538 E560.07271
G1 X25.062 Y43.311 E560.84905
G1 X25.019 Y43.336 E560.8752
G1 X22.427 Y44.731 E562.42788
G1 X22.383 Y44.753 E562.45402
G1 X21.048 Y45.372 E563.23037
G1 X19.712 Y45.99 E564.00672
G1 X19.667 Y46.01 E564.03287
G1 X18.297 Y46.548 E564.80921
G1 X16.927 Y47.085 E565.58555
G1 X16.88 Y47.102 E565.6117
G1 X15.48 Y47.557 E566.38804
G1 X14.08 Y48.012 E567.16437
G1 X14.033 Y48.026 E567.19052
G1 X11.184 Y48.766 E568.74322
G1 X11.136 Y48.777 E568.76937
G1 X9.692 Y49.062 E569.5457
G1 X8.248 Y49.346 E570.32204
G1 X8.199 Y49.354 E570.34818
G1 X6.74 Y49.552 E571.12453
G1 X5.282 Y49.749 E571.90088
G1 X5.232 Y49.754 E571.92703
G1 X2.297 Y49.974 E573.47972
G1 X2.248 Y49.977 E573.50586
G1 X0.776 Y49.999 E574.2822
G1 X-0.696 Y50.021 E575.05854
G1 X-0.745 Y50.02 E575.08469
G1 X-2.216 Y49.954 E575.86104
G1 X-3.686 Y49.888 E576.63738
G1 X-3.735 Y49.884 E576.66353
G1 X-5.199 Y49.73 E577.43987
G1 X-6.663 Y49.577 E578.2162
G1 X-6.712 Y49.57 E578.24235
G1 X-9.616 Y49.088 E579.79505
G1 X-9.664 Y49.078 E579.8212
G1 X-11.099 Y48.751 E580.59753
G1 X-12.534 Y48.423 E581.37386
G1 X-12.582 Y48.411 E581.40001
